X:1
T:Love Divine (Stainer), 87.87
T:John Stainer, 1889
T:Love Divine (Stainer), 87.87
T:Public Domain
C:John Stainer, 1889
Z:Public Domain
%%score ( 1 2 ) ( 3 4 )
L:1/8
M:none
K:G
V:1 treble 
V:2 treble 
V:3 bass 
V:4 bass 
V:1
 [DG]2 [^DG]2 (GA) [B,B]2 | [EA]2 [EG]2 [DF]2 D2 | [DG]2 [Gd]2 [Gd]2 [G^c]2 | [Gd]2 [GB]2 (G2 F2) | %4
 [FA]2 [=FA]2 (AB) [Ec]2 | [^DB]2 [FA]2 [EG]2 E2 | [EB]2 [EA]2 [DG]2 D2 | [DE]2 [CF]2 [B,G]4 |] %8
V:2
 x4 E2 x2 | x6 D2 | x8 | x4 A4 | x4 E2 x2 | x6 E2 | x6 D2 | x8 |] %8
V:3
 [G,B,]2 [F,B,]2 [E,B,]2 (E,D,) | [C,A,]2 (CB,) [D,A,]2 (D,C,) | [B,,G,]2 z D [B,D]2 [^A,E]2 | %3
 [B,D]2 [G,D]2 [D,D]4 | [D,D]2 [D,A,]2 [C,A,]2 (A,G,) | [B,,F,]2 [^D,B,]2 [E,B,]2 (E,D,) | %6
 [C,G,]2 [C,B,]2 [D,C]2 [D,B,]2 | [D,B,]2 [D,A,]2 [G,,G,]4 |] %8
V:4
 x6 G,2 | x2 A,,2 x F,2 x | x2 B,2 x4 | x8 | x6 A,,2 | x6 G,2 | x8 | x8 |] %8

